X:1
T:Title
%%score { ( 1 3 ) | ( 2 4 ) }
L:1/8
Q:1/4=94
M:2/4
K:Bb
V:1 treble nm="Grand Piano"
V:3 treble 
V:2 bass 
V:4 bass 
V:1
 [DB]>[DB] [DB][DF] | [DG][EA] [DB]F | c>c cA | c4 | [DB]>[DB] [DB][DF] | [EG][EA] [FB][Fd] | %6
w: Robert~Lowry * * *||||||
 [Fc]>[GB] [FA][=EG] | z2 G/A/B/c/ | d>d d>d | c[GB] GF | z2 z d | [Ge]4 | d>d ed | c[GB] [FA]G | %14
w: ||||||||
 FB A<c | [DFB]4 |] %16
w: ||
V:2
 [B,,F,]>[B,,F,] [B,,F,][B,,B,] | [E,B,][C,F,] [B,,F,][D,B,] | [F,A,F]>[F,A,F] [F,A,F][F,CF] | %3
 [A,F]2- [A,F]/-[E,A,-F-]/[D,A,-F-]/[C,A,F]/ | [B,,B,]>[B,,B,] [B,,B,][B,,B,] | %5
 [E,B,][E,C] [D,B,][B,,B,] | [C,A,]>[C,C] [C,C][C,B,] | [F,A,]4 | [B,F]>[B,F] [B,F]>[B,F] | %9
 [E,G,E][E,B,] [G,B,E][B,D] | [F,A,F]>[K:treble][F,A,F] [F,A,F].[B,F] | [E,B,]4 | %12
 [B,F]>[B,F] [B,G][B,F] | [E,G,E][E,B,] [E,B,][E,B,E] | [F,B,D][F,DF] [F,CF]<[F,EF] | B,,4 |] %16
V:3
 x4 | x4 | x4 | z2 F,2 | x4 | x4 | x4 | F4 | x4 | x4 | c>c .c>_A | x4 | x4 | x4 | x4 | x4 |] %16
V:4
 x4 | x4 | x4 | F,2 z2 | x4 | x4 | x4 | x4 | x4 | x4 | x3/2[K:treble] x5/2 | x4 | x4 | x4 | x4 | %15
 x4 |] %16

